X:1
T:Behold, What Love!
T:Behold, What Love!
T:James McGranahan (1840-1907)
T:Attributed to Robert Boswell (1746-1804)
T:Public Domain Courtesy of the Cyber Hymnal™
T:Public Domain Courtesy of the Cyber Hymnal™
C:James McGranahan (1840-1907)
Z:Public Domain
Z:Courtesy of the Cyber Hymnal™
%%score ( 1 2 ) ( 3 4 )
L:1/8
Q:1/4=110
M:4/4
K:Db
V:1 treble 
V:2 treble 
V:3 bass 
V:4 bass 
V:1
 (DF) | [DA]2 [EA]2 [FA]2 [=Ed]2 | [FA]3 [EG] [DF]2 (DE) | [DF]2 ([FA][EG]) [DF]2 [CE]2 | %4
w: 1.~Be- *|hold, what love, what|bound- less love, The *|Fa- ther * hath be-|
w: 2.~No *|long- er far from|Him but now By *|“pre- cious * blood” made|
w: 3.~What *|we in glo- ry|soon shall be, It *|doth not * yet ap-|
w: 4.~With *|such a bless- èd|hope in view, We *|would more * ho- ly|
 D6 ([DF][FA]) | [GB]2 [GB]2 [GB]2 ([DG][GB]) | [Fd]2 [Fd]2 [Fd]2 (Ad) | %7
w: stowed On *|sin- ners lost, that *|we should be Now *|
w: nigh, Ac- *|cept- ed in the *|“Well be- loved,” Near *|
w: pear; But *|when our pre- cious *|Lord we see, We *|
w: be, More *|like our ris- en, *|glor- ious Lord, Whose *|
 (ce) ([Ae][=Gd]) [Ac]2 [EB]2 | [EA]6 ||[M:12/8]"^Refrain" [GA]3 | [Fd]6- [Fd]2 [Fd] [Fd][Ac][GB] | %11
w: called * “the * sons of|God!”|||
w: to * God’s * heart we|lie.|Be-|hold, * what man- ner of|
w: shall * His * im- age|bear.|||
w: face * we * soon shall|see.|||
 [FA]6- [FA]2 [FA] [DB][DA][DG] | [DF]2 [DF] [CE]2 [DF] [EG]2 [FA] [GB]2 [Ac] | [GB]3 [FA]6 [FA]3 | %14
w: |||
w: love! * what man- ner of|love the Fa- ther hath be- stowed up-|on us, That|
w: |||
w: |||
 [Af]6- [Af]2 [Ae] [Bd][Ac][GB] | [FA]6- [FA]3 ([Fd][Ge])[Af] | [Ge]3 [Ge]3 [Fd]3 c3 | %17
w: |||
w: we, * that we should be|called, * should * be|called the sons of|
w: |||
w: |||
 [Fd]6- [Fd]3 |] %18
w: |
w: God! *|
w: |
w: |
V:2
 D2 | x8 | x6 D2 | x8 | D6 x2 | x8 | x6 F2 | E2 x6 | x6 ||[M:12/8] x3 | x12 | x12 | x12 | x12 | %14
 x12 | x12 | x9 (EFG) | x9 |] %18
V:3
 [D,F,]2 | [D,F,]2 [D,G,]2 [D,A,]2 [D,=G,B,]2 | [D,A,]3 [D,A,] [D,A,]2 (F,G,) | %3
w: ~|~ ~ ~ ~|~ ~ ~ ~ *|
 [D,A,]2 [D,D]2 [A,,D]2 (A,G,) | [D,F,]6 (A,D) | [G,D]2 [G,D]2 [G,D]2 [G,B,]2 | %6
w: ~ ~ ~ ~ *|~ ~ *|~ ~ ~ ~|
 [D,A,]2 [D,A,]2 [D,A,]2 (DA,) | (A,C) (CB,) [E,A,]2 (=G,D) | [A,C]6 ||[M:12/8] A,3 | %10
w: ~ ~ ~ ~ *|~ * ~ * ~ ~ *|~|Be-|
 [D,A,]2 [D,A,] [D,A,][D,A,][D,A,] [D,A,]3 (A,2 D) | %11
w: hold, what man- ner of love! be- *|
 [D,D]2 [D,D] [D,D][F,D][F,D] D2 D [G,D][G,C][G,B,] | %12
w: hold, what man- ner of love! ~ ~ ~ ~|
 [D,A,]2 [D,A,] [A,,A,]2 [A,,A,] [A,,A,]2 [A,,D] [A,,D]2 [A,,D] | [D,D]3 [D,D]6 [D,D]3 | %14
w: ~ ~ ~ ~ ~ ~ ~ ~|~ ~ ~|
 [D,D]3 [D,D]2 [D,D] [D,D]3 [G,D][G,D][G,D] | [D,D]2 [D,D] [F,D]2 [A,D] D3 [D,A,]2 [D,D] | %16
w: we should be called, we should be|called, the sons of God! * *|
 [G,B,]3 [E,B,]3 A,3 [A,,A,]3 | [D,A,]6- [D,A,]3 |] %18
w: ||
V:4
 x2 | x8 | x6 D,2 | x6 A,,2 | x6 D,2 | x8 | x6 D,2 | E,2 E,2 x E,2 x | x6 ||[M:12/8] A,3 | x9 D,3 | %11
 x6 D2 D x3 | x12 | x12 | x12 | x6 D3 x3 | x6 A,3 x3 | x9 |] %18

